icons/svg/seamark/radar_transponder_additional.svg

<?xml version="1.0" encoding="UTF-8" standalone="no"?>
<svg
   xmlns:dc="http://purl.org/dc/elements/1.1/"
   xmlns:cc="http://creativecommons.org/ns#"
   xmlns:rdf="http://www.w3.org/1999/02/22-rdf-syntax-ns#"
   xmlns:svg="http://www.w3.org/2000/svg"
   xmlns="http://www.w3.org/2000/svg"
   xmlns:sodipodi="http://sodipodi.sourceforge.net/DTD/sodipodi-0.dtd"
   xmlns:inkscape="http://www.inkscape.org/namespaces/inkscape"
   width="580"
   height="580"
   id="svg2"
   version="1.1"
   inkscape:version="0.48.4 r9939"
   sodipodi:docname="radar_transponder_additional.svg">
  <defs
     id="defs13">
    <inkscape:path-effect
       effect="gears"
       id="path-effect3774"
       is_visible="true"
       teeth="6"
       phi="-1.2" />
    <inkscape:path-effect
       effect="bend_path"
       id="path-effect3772"
       is_visible="false"
       bendpath="m 95.790098,316.51174 c 144.429032,-206.42506 223.313032,-11.7428 339.548092,0"
       prop_scale="1.19"
       scale_y_rel="false"
       vertical="false"
       bendpath-nodetypes="cc" />
  </defs>
  <sodipodi:namedview
     pagecolor="#ffffff"
     bordercolor="#666666"
     borderopacity="1"
     objecttolerance="10"
     gridtolerance="10"
     guidetolerance="10"
     inkscape:pageopacity="0"
     inkscape:pageshadow="2"
     inkscape:window-width="1920"
     inkscape:window-height="1004"
     id="namedview11"
     showgrid="false"
     inkscape:zoom="0.81379307"
     inkscape:cx="318.6981"
     inkscape:cy="244.94767"
     inkscape:window-x="1680"
     inkscape:window-y="0"
     inkscape:window-maximized="1"
     inkscape:current-layer="svg2" />
  <metadata
     id="metadata2975">image/svg+xmlen<rdf:RDF>
  <cc:Work
     rdf:about="">
    <dc:format>image/svg+xml</dc:format>
    <dc:type
       rdf:resource="http://purl.org/dc/dcmitype/StillImage" />
    <dc:title></dc:title>
  </cc:Work>
</rdf:RDF>
</metadata>
  <path
     style="font-size:medium;font-style:normal;font-variant:normal;font-weight:normal;font-stretch:normal;text-indent:0;text-align:start;text-decoration:none;line-height:normal;letter-spacing:normal;word-spacing:normal;text-transform:none;direction:ltr;block-progression:tb;writing-mode:lr-tb;text-anchor:start;baseline-shift:baseline;opacity:0.81199999;color:#000000;fill:#2e00ff;fill-opacity:1;stroke:none;stroke-width:18.48184776;marker:none;visibility:visible;display:inline;overflow:visible;enable-background:accumulate;font-family:Sans;-inkscape-font-specification:Sans"
     d="m 46.875,376.84375 c -24.229208,40.90547 -38.15625,88.62792 -38.15625,139.5625 0,18.40457 0.9277128,23.94469 3.315678,41.95392 8.873575,13.92293 25.28381,12.58723 30.133484,-4.90274 -1.691866,-15.8496 -2.720234,-19.71858 -2.720234,-36.33326 0,-45.90876 12.495247,-88.86911 34.253323,-125.67723 C 73.905352,367.99204 56.316898,370.76301 46.875,376.84375 z m 474,2.34375 c -17.52639,-11.95441 -28.2044,-2.19709 -25.8662,14.42294 20.94455,36.30671 32.90525,78.45938 32.90525,123.44064 0,15.13622 -0.22677,19.89611 -2.15265,34.5011 2.53013,8.72568 15.52117,22.26611 28.87591,3.33576 2.89391,-15.95841 3.05019,-21.69574 3.05019,-38.48169 0,-49.97184 -13.42512,-96.83502 -36.8125,-137.21875 z"
     id="path3845"
     inkscape:connector-curvature="0"
     sodipodi:nodetypes="csccsccccsccsc" />
</svg>

<svg width="580" height="580" viewBox="0 0 580 580" fill="none" xmlns="http://www.w3.org/2000/svg">
<path opacity="0.812" d="M46.875 376.844C22.6458 417.75 8.71875 465.472 8.71875 516.407C8.71875 534.812 9.64646 540.352 12.0344 558.361C20.908 572.284 37.3182 570.948 42.1679 553.458C40.476 537.609 39.4477 533.74 39.4477 517.125C39.4477 471.216 51.9429 428.256 73.701 391.448C73.9054 367.993 56.3169 370.764 46.875 376.844ZM520.875 379.188C503.349 367.234 492.671 376.991 495.009 393.611C515.953 429.918 527.914 472.071 527.914 517.052C527.914 532.188 527.687 536.948 525.761 551.553C528.292 560.279 541.283 573.819 554.637 554.889C557.531 538.93 557.688 533.193 557.688 516.407C557.688 466.435 544.262 419.572 520.875 379.188Z" fill="#2E00FF"/>
</svg>
